Newaita-dark/actions/24/mail-reply-all.svg

<svg height="24" viewBox="0 0 24 24" width="24" xmlns="http://www.w3.org/2000/svg"><g fill="#e0e0e0"><path d="m5.953125 20.03125v-4.960938l-3.96875 2.480469zm0 0"/><path d="m11.410156 16.558594h-1.734375c-.277343 0-.496093.222656-.496093.496094v.992187c0 .277344.21875.496094.496093.496094h1.734375c.273438 0 .496094-.21875.496094-.496094v-.992187c0-.273438-.222656-.496094-.496094-.496094zm0 0"/><path d="m9.921875 20.03125v-4.960938l-3.96875 2.480469zm0 0"/><path d="m3.96875 4.15625h15.875c1.101562 0 1.988281.886719 1.988281 1.984375v11.90625c0 1.101563-.886719 1.984375-1.988281 1.984375h-5.953125v-1.984375h4.960937c.550782 0 .992188-.441406.992188-.992187v-9.703126l-7.28125 6.472657c-.375.332031-.9375.332031-1.3125 0l-7.28125-6.472657v5.734376h-1.984375v-6.945313c0-1.097656.886719-1.984375 1.984375-1.984375zm14.265625 1.984375h-12.65625l6.328125 5.625zm0 0"/></g></svg>

<?xml version="1.0" encoding="UTF-8"?>
<svg xmlns="http://www.w3.org/2000/svg" xmlns:xlink="http://www.w3.org/1999/xlink" width="24px" height="24px" viewBox="0 0 24 24" version="1.1">
<g id="surface1">
<path style=" stroke:none;fill-rule:nonzero;fill:rgb(87.843138%,87.843138%,87.843138%);fill-opacity:1;" d="M 5.953125 20.03125 L 5.953125 15.070312 L 1.984375 17.550781 Z M 5.953125 20.03125 "/>
<path style=" stroke:none;fill-rule:nonzero;fill:rgb(87.843138%,87.843138%,87.843138%);fill-opacity:1;" d="M 11.410156 16.558594 L 9.675781 16.558594 C 9.398438 16.558594 9.179688 16.78125 9.179688 17.054688 L 9.179688 18.046875 C 9.179688 18.324219 9.398438 18.542969 9.675781 18.542969 L 11.410156 18.542969 C 11.683594 18.542969 11.90625 18.324219 11.90625 18.046875 L 11.90625 17.054688 C 11.90625 16.78125 11.683594 16.558594 11.410156 16.558594 Z M 11.410156 16.558594 "/>
<path style=" stroke:none;fill-rule:nonzero;fill:rgb(87.843138%,87.843138%,87.843138%);fill-opacity:1;" d="M 9.921875 20.03125 L 9.921875 15.070312 L 5.953125 17.550781 Z M 9.921875 20.03125 "/>
<path style=" stroke:none;fill-rule:nonzero;fill:rgb(87.843138%,87.843138%,87.843138%);fill-opacity:1;" d="M 3.96875 4.15625 L 19.84375 4.15625 C 20.945312 4.15625 21.832031 5.042969 21.832031 6.140625 L 21.832031 18.046875 C 21.832031 19.148438 20.945312 20.03125 19.84375 20.03125 L 13.890625 20.03125 L 13.890625 18.046875 L 18.851562 18.046875 C 19.402344 18.046875 19.84375 17.605469 19.84375 17.054688 L 19.84375 7.351562 L 12.5625 13.824219 C 12.1875 14.15625 11.625 14.15625 11.25 13.824219 L 3.96875 7.351562 L 3.96875 13.085938 L 1.984375 13.085938 L 1.984375 6.140625 C 1.984375 5.042969 2.871094 4.15625 3.96875 4.15625 Z M 18.234375 6.140625 L 5.578125 6.140625 L 11.90625 11.765625 Z M 18.234375 6.140625 "/>
</g>
</svg>
